!!!OTL: Nonnenklage
!!!ARE: Europa, Mitteleuropa, Deutschland
!!!SCT: A0242
!!!YEM: Copyright 1995, estate of Helmut Schaffrath.
**kern
*ICvox
*Ivox
!! Mixed meters:  4/2; 6/2
*M6/2
*k[f#]
*G:
{2gg
=1
2gg
2gg
2ffn
2ee
=2
1cc
2dd}
{2ee
=3
2.ffn
4gg
2aa
2.gg
4ffn
2g
=4
*M4/2
1ffn
2dd}
{2gg
=5
2gg
2gg
2ffn
2ee
=6
1cc
2dd}
{2ee
=7
*M6/2
2.ffn
4gg
2aa
2.gg
4ffn
2g
=8
*M4/2
1ffn
2dd}
{2dd
=9
2dd
2dd
2ee
2ee
=10
1ffn
2dd}
{2dd
=11
*M6/2
2.ffn
4ee
2dd
2.cc
4b-
2a
=12
*M4/2
1b-
2r}
{2ffn
=13
2ffn
2ffn
2ffn
2ffn
=14
1gg
2dd}
{2dd
=15
*M6/2
2.ffn
4gg
2aa
1gg
2ffn
=16
1gg
2dd}
{2dd
2ffn
2ee
=17
2dd
1cc
2b-
1a
=18
1.g}
==
!!!AGN: Romanze, Ballade, Lied
!! Souterliedekens 1540 ad Ps. 82.
!!!ONB: ESAC (Essen Associative Code) Database: ALTDEU
!!!AMT: irregular
!!!AIN: vox
!!!EED: Helmut Schaffrath
!!!EEV: 1.0
*-
